alura/assets/api/cursos/flutter-aplicando-bloc-cubit.svg

<svg width="50" height="50" viewBox="0 0 50 50" fill="none" xmlns="http://www.w3.org/2000/svg">
<path d="M30.2699 3.15998L23.7999 1.97998C22.6299 1.97998 5.37992 12.01 5.37992 13.18L4.66992 20.94L38.6199 8.81998L38.0499 8.48998C38.0599 7.31998 31.4499 3.15998 30.2699 3.15998Z" fill="#FF6B6B"/>
<path d="M4.51996 22.9501L4.28996 34.9501C4.12996 37.1801 13.07 43.6701 15.18 42.9201L47.43 31.5501C47.34 30.1001 46.66 14.5501 45.83 12.8801L40.98 10.7801C40.28 9.37009 38.63 8.71009 37.15 9.24009L5.18996 20.7101C4.02996 21.1201 4.60996 21.7301 4.51996 22.9501Z" fill="#E56060"/>
<path d="M12.54 23.8899L26.26 10.1599L34.13 10.1199L16.45 27.7999L12.54 23.8899Z" stroke="#444444" stroke-width="0.5" stroke-miterlimit="10" stroke-linecap="round" stroke-linejoin="round"/>
<path d="M33.84 37.1599H25.71L18.99 30.4399L26.12 22.9399H34.13L23.02 34.5299" stroke="#444444" stroke-width="0.5" stroke-miterlimit="10" stroke-linecap="round" stroke-linejoin="round"/>
<path d="M33.84 37.1598L22.95 26.2698" stroke="#444444" stroke-width="0.5" stroke-miterlimit="10" stroke-linecap="round" stroke-linejoin="round"/>
<path d="M29.68 32.98L33.84 37.16H25.71" stroke="#444444" stroke-width="0.5" stroke-miterlimit="10" stroke-linecap="round" stroke-linejoin="round"/>
<path d="M14.1201 18.2299L5.38013 13.1799L25.7201 1.43994L46.0701 13.1799L32.6801 20.9099" stroke="#444444" stroke-miterlimit="10" stroke-linecap="round" stroke-linejoin="round"/>
<path d="M25.7202 39.04V48.6" stroke="#444444" stroke-miterlimit="10" stroke-linecap="round" stroke-linejoin="round"/>
<path d="M46.6401 31.6299V15.1599C46.6401 13.7899 45.9101 12.5199 44.7201 11.8399L27.6401 1.9799C26.4501 1.2899 24.9901 1.2899 23.8001 1.9799L6.73006 11.8399C5.54006 12.5299 4.81006 13.7899 4.81006 15.1599V34.8799C4.81006 36.2499 5.54006 37.5199 6.73006 38.1999L23.8101 48.0599C25.0001 48.7499 26.4601 48.7499 27.6501 48.0599L37.9701 42.0999" stroke="#444444" stroke-width="2.5" stroke-miterlimit="10" stroke-linecap="round" stroke-linejoin="round"/>
</svg>

<svg xmlns="http://www.w3.org/2000/svg" fill="none" viewBox="0 0 50 50"><path fill="#FF6B6B" d="M30.27 3.16L23.8 1.98c-1.17 0-18.42 10.03-18.42 11.2l-.71 7.76L38.62 8.82l-.57-.33c.01-1.17-6.6-5.33-7.78-5.33z"/><path fill="#E56060" d="M4.52 22.95l-.23 12c-.16 2.23 8.78 8.72 10.89 7.97l32.25-11.37c-.09-1.45-.77-17-1.6-18.67l-4.85-2.1a3.109 3.109 0 00-3.83-1.54L5.19 20.71c-1.16.41-.58 1.02-.67 2.24z"/><path stroke="#444" stroke-linecap="round" stroke-linejoin="round" stroke-miterlimit="10" stroke-width=".5" d="M12.54 23.89l13.72-13.73 7.87-.04L16.45 27.8l-3.91-3.91zm21.3 13.27h-8.13l-6.72-6.72 7.13-7.5h8.01L23.02 34.53m10.82 2.63L22.95 26.27"/><path stroke="#444" stroke-linecap="round" stroke-linejoin="round" stroke-miterlimit="10" stroke-width=".5" d="M29.68 32.98l4.16 4.18h-8.13"/><path stroke="#444" stroke-linecap="round" stroke-linejoin="round" stroke-miterlimit="10" d="M14.12 18.23l-8.74-5.05L25.72 1.44l20.35 11.74-13.39 7.73m-6.96 18.13v9.56"/><path stroke="#444" stroke-linecap="round" stroke-linejoin="round" stroke-miterlimit="10" stroke-width="2.5" d="M46.64 31.63V15.16c0-1.37-.73-2.64-1.92-3.32L27.64 1.98a3.82 3.82 0 00-3.84 0L6.73 11.84a3.834 3.834 0 00-1.92 3.32v19.72c0 1.37.73 2.64 1.92 3.32l17.08 9.86c1.19.69 2.65.69 3.84 0l10.32-5.96"/></svg>
